X: 114
T: Jack's alive
R: jig
M: 6/8
L: 1/8
Z: 2011 John Chambers <jc:trillian.mit.edu>
B: Abraham Mackintosh "A Collection of Strathspeys, Reels, Jigs &c.", Newcastle, after 1797, p.11
F: http://imslp.info/files/imglnks/usimg/a/a8/IMSLP80796-PMLP164326-Abraham_Mackintosh_coll.pdf
K: G
V: 1
|:\
g2G GAB | A2A ABc | d2B c2A | B2G FED | G2G GAB | A2A ABc | dBd cBA | G3 G3 :|
g2g gbg | f2f faf | e2e efg | a2g fed | g2g gbg | f2f faf | efg agf | g3 g3 |
gbg gbg | faf faf | efe efg | abg fed | gab Bcd | efg ABc | dcB AGF | G3 G3 :|
V: 2 clef=bass middle=d
|:\
[g3G3] [g3G3] | [d'3d3] [c'3c3] | [b3B3] [a3A3] | [g3G3] [d3D3] |\
[g3G3] [g3G3] | [d3D3] [d3D3] | [d3D3] [d3D3] | [g3G3] [g3G3] :|
[g3G3] [g3G3] | [d3D3] [d3D3] | [e3E3] [a3A3] | [f3F3] [d3D3] |\
[g3G3] [g3G3] | [d3D3] [d3D3] | [c3C3] [d3D3] | [g3G3] [g3G3] |
[g3G3] [g3G3] | [d3D3] [d3D3] | [e3E3] [a3A3] | [f3F3] [d3D3] |\
[g3G3] [g3G3] | [c3C3] c2A | [d3D3] [d3D3] | [g3G3] [g3G3] |]

%%sep 2 1 500

